apps/app.mento.org/public/tokens/ZARm.svg

<svg width="220" height="220" viewBox="0 0 220 220" fill="none" xmlns="http://www.w3.org/2000/svg">
<path d="M110 220C170.751 220 220 170.751 220 110C220 49.2487 170.751 0 110 0C49.2487 0 0 49.2487 0 110C0 170.751 49.2487 220 110 220Z" fill="#510DC1"/>
<path d="M110 23C158.049 23 197 61.9512 197 110C197 158.049 158.049 197 110 197C61.9512 197 23 158.049 23 110C23 61.9512 61.9512 23 110 23Z" stroke="url(#paint0_linear_2057_373)" stroke-width="36"/>
<path d="M110 202C160.81 202 202 160.81 202 110C202 59.1898 160.81 18 110 18C59.1898 18 18 59.1898 18 110C18 160.81 59.1898 202 110 202Z" fill="#510DC1"/>
<path d="M151.623 133.835C150.221 124.82 146.713 117.794 138.435 113.821C148.395 107.71 154.148 98.3906 154.148 87.3909C154.148 68.1415 142.924 55 118.373 55H73.333V165H92.1338V121.459H115.985C126.369 121.459 131.561 126.655 133.105 138.57L136.471 165H142.23L138.02 133.832C136.875 126.474 134.328 120.438 128.926 116.315C128.929 116.315 128.932 116.315 128.935 116.311L134.137 115.249C140.593 119.368 143.504 125.818 144.753 133.832L148.963 165H155.833L151.623 133.835ZM115.985 104.96H92.1338V72.1144H115.985C128.612 72.1144 134.648 77.9182 134.648 88.6139C134.648 99.3095 128.612 104.96 115.985 104.96Z" fill="url(#paint1_linear_2057_373)"/>
<defs>
<linearGradient id="paint0_linear_2057_373" x1="64.1821" y1="5" x2="189.228" y2="221.682" gradientUnits="userSpaceOnUse">
<stop offset="0.447115" stop-color="#FEF100"/>
<stop offset="0.596154" stop-color="#1A9900"/>
</linearGradient>
<linearGradient id="paint1_linear_2057_373" x1="114.583" y1="55" x2="114.583" y2="165" gradientUnits="userSpaceOnUse">
<stop stop-color="#E2DBFF"/>
<stop offset="0.975962" stop-color="#FBFAFF"/>
</linearGradient>
</defs>
</svg>

<svg xmlns="http://www.w3.org/2000/svg" width="220" height="220" fill="none" viewBox="0 0 220 220"><path fill="#510dc1" d="M110 220c60.751 0 110-49.249 110-110S170.751 0 110 0 0 49.249 0 110s49.249 110 110 110"/><path stroke="url(#a)" stroke-width="36" d="M110 23c48.049 0 87 38.951 87 87s-38.951 87-87 87-87-38.951-87-87 38.951-87 87-87Z"/><path fill="#510dc1" d="M110 202c50.81 0 92-41.19 92-92s-41.19-92-92-92-92 41.19-92 92 41.19 92 92 92"/><path fill="url(#b)" d="M151.623 133.835c-1.402-9.015-4.91-16.041-13.188-20.014 9.96-6.111 15.713-15.43 15.713-26.43 0-19.25-11.224-32.391-35.775-32.391h-45.04v110h18.8v-43.541h23.852c10.384 0 15.576 5.196 17.12 17.111l3.366 26.43h5.759l-4.21-31.168c-1.145-7.358-3.692-13.394-9.094-17.517q.005.001.009-.004l5.202-1.062c6.456 4.119 9.367 10.569 10.616 18.583l4.21 31.168h6.87zm-35.638-28.875H92.134V72.114h23.851c12.627 0 18.663 5.804 18.663 16.5s-6.036 16.346-18.663 16.346"/><defs><linearGradient id="a" x1="64.182" x2="189.228" y1="5" y2="221.682" gradientUnits="userSpaceOnUse"><stop offset=".447" stop-color="#fef100"/><stop offset=".596" stop-color="#1a9900"/></linearGradient><linearGradient id="b" x1="114.583" x2="114.583" y1="55" y2="165" gradientUnits="userSpaceOnUse"><stop stop-color="#e2dbff"/><stop offset=".976" stop-color="#fbfaff"/></linearGradient></defs></svg>
